X:1
T:Here's Your Mule
M:6/8
L:1/8
K:C
 c| c3/2- B/2 A G2 G| A3/2- G/2 F E2 E| G3/2- F/2 ED-G F| E2 z z2 c|\
 c3/2- B/2 A G2 G| A3/2- G/2 F E2 E| G3/2- F/2 ED-A G| C2 z z2 D| D2 D E2 ^F|\
 G2 A B2 B| A2 A d2 c| B2 z z2 D| D2 D E2 ^F| G2 A B2c/2-c/2| d2 c E2 ^F|\
 G3- G2 c| c3/2- B/2 A G2 G| A3/2- G/2 F E2 G| G3/2- F/2 ED-G F| E3 z2 c|\
 c3/2- B/2 A G2 G| A3/2- G/2 F E2 G| G2 G A2 A| c3 z2||
